icons/midnadark/actions/24/irc-channel-inactive.svg

<?xml version="1.0" encoding="UTF-8" standalone="no"?>
<!-- Created with Inkscape (http://www.inkscape.org/) -->

<svg
   xmlns:dc="http://purl.org/dc/elements/1.1/"
   xmlns:cc="http://creativecommons.org/ns#"
   xmlns:rdf="http://www.w3.org/1999/02/22-rdf-syntax-ns#"
   xmlns:svg="http://www.w3.org/2000/svg"
   xmlns="http://www.w3.org/2000/svg"
   xmlns:sodipodi="http://sodipodi.sourceforge.net/DTD/sodipodi-0.dtd"
   xmlns:inkscape="http://www.inkscape.org/namespaces/inkscape"
   width="22"
   height="22"
   id="svg3869"
   version="1.1"
   inkscape:version="0.91 r13725"
   sodipodi:docname="irc-channel-inactive.svg">
  <defs
     id="defs3871">
    <linearGradient
       id="linearGradient4066">
      <stop
         offset="0"
         style="stop-color:#dbc9ee;stop-opacity:1"
         id="stop4068" />
      <stop
         offset="1"
         style="stop-color:#faf7fd;stop-opacity:1"
         id="stop4070" />
    </linearGradient>
    <linearGradient
       id="linearGradient3843-5">
      <stop
         id="stop3845-0"
         style="stop-color:#5a2c8b;stop-opacity:1"
         offset="0" />
      <stop
         id="stop3847-4"
         style="stop-color:#9d59cf;stop-opacity:1"
         offset="1" />
    </linearGradient>
  </defs>
  <sodipodi:namedview
     id="base"
     pagecolor="#ffffff"
     bordercolor="#666666"
     borderopacity="1.0"
     inkscape:pageopacity="0.0"
     inkscape:pageshadow="2"
     inkscape:zoom="11.313708"
     inkscape:cx="-20.87705"
     inkscape:cy="12.747922"
     inkscape:document-units="px"
     inkscape:current-layer="layer1"
     showgrid="true"
     fit-margin-top="0"
     fit-margin-left="0"
     fit-margin-right="0"
     fit-margin-bottom="0"
     inkscape:window-width="1366"
     inkscape:window-height="633"
     inkscape:window-x="0"
     inkscape:window-y="33"
     inkscape:window-maximized="1"
     inkscape:showpageshadow="false"
     inkscape:snap-bbox="true"
     inkscape:object-nodes="true">
    <inkscape:grid
       type="xygrid"
       id="grid4132" />
    <sodipodi:guide
       position="4,18"
       orientation="18,0"
       id="guide4138" />
    <sodipodi:guide
       position="5,3"
       orientation="0,18"
       id="guide4140" />
    <sodipodi:guide
       position="20,2.0000174"
       orientation="-18,0"
       id="guide4142" />
    <sodipodi:guide
       position="2,21"
       orientation="0,-18"
       id="guide4144" />
    <sodipodi:guide
       position="3,19.000017"
       orientation="16,0"
       id="guide4146" />
    <sodipodi:guide
       position="2,4"
       orientation="0,16"
       id="guide4148" />
    <sodipodi:guide
       position="21,20"
       orientation="-16,0"
       id="guide4150" />
    <sodipodi:guide
       position="2,20"
       orientation="0,-16"
       id="guide4152" />
  </sodipodi:namedview>
  <metadata
     id="metadata3874">
    <rdf:RDF>
      <cc:Work
         rdf:about="">
        <dc:format>image/svg+xml</dc:format>
        <dc:type
           rdf:resource="http://purl.org/dc/dcmitype/StillImage" />
        <dc:title />
      </cc:Work>
    </rdf:RDF>
  </metadata>
  <g
     inkscape:label="Capa 1"
     inkscape:groupmode="layer"
     id="layer1"
     transform="translate(-326,-534.3622)">
    <g
       transform="matrix(0.98318327,0,0,0.98318327,-218.23244,-38.847674)"
       id="layer1-8"
       inkscape:label="Capa 1">
      <g
         transform="matrix(0.06404355,0,0,0.06404355,556.59508,586.06526)"
         style="fill:#4d4d4d;fill-opacity:1"
         id="g3">
        <path
           style="fill:#ffffff;fill-opacity:1"
           d="M 7.578125 3 C 6.7380883 3 6.0546875 3.6837786 6.0546875 4.5234375 L 6.0546875 6.0507812 L 4.5253906 6.0507812 C 3.6856688 6.0507812 3.0019531 6.734182 3.0019531 7.5742188 C 3.0019531 8.4138777 3.6856688 9.0976562 4.5253906 9.0976562 L 6.0546875 9.0976562 L 6.0546875 12.632812 L 4.5253906 12.632812 C 3.6856688 12.632812 3.0019531 13.316717 3.0019531 14.15625 C 3.0019531 14.995783 3.6856688 15.679688 4.5253906 15.679688 L 6.0546875 15.679688 L 6.0546875 17.207031 C 6.0546875 18.047194 6.7380883 18.730469 7.578125 18.730469 C 8.4178469 18.730469 9.0996094 18.047194 9.0996094 17.207031 L 9.0996094 15.679688 L 12.634766 15.679688 L 12.634766 17.207031 C 12.634766 18.047194 13.31867 18.730469 14.158203 18.730469 C 14.998177 18.730469 15.681641 18.047194 15.681641 17.207031 L 15.681641 15.679688 L 17.210938 15.679688 C 18.050785 15.679688 18.732422 14.995783 18.732422 14.15625 C 18.732422 13.316717 18.050722 12.632812 17.210938 12.632812 L 15.681641 12.632812 L 15.681641 9.0976562 L 17.210938 9.0976562 C 18.050408 9.0976562 18.734375 8.4138777 18.734375 7.5742188 C 18.734375 6.7341191 18.05047 6.0507812 17.210938 6.0507812 L 15.681641 6.0507812 L 15.681641 4.5234375 C 15.681641 3.6837786 14.997862 3 14.158203 3 C 13.31804 3 12.636719 3.6837786 12.636719 4.5234375 L 12.636719 6.0507812 L 9.0996094 6.0507812 L 9.0996094 4.5234375 C 9.0996094 3.6837786 8.4178469 3 7.578125 3 z M 8.4238281 8.4199219 L 13.3125 8.4199219 L 13.3125 13.310547 L 8.4238281 13.310547 L 8.4238281 8.4199219 z "
           transform="matrix(15.881449,0,0,15.881449,-47.68454,-47.63934)"
           id="path7" />
      </g>
      <rect
         ry="3.9810264"
         y="594.3772"
         x="564.90155"
         height="7.9620528"
         width="7.9620528"
         id="rect4172-8"
         style="opacity:1;fill:#bdc3c7;fill-opacity:1;stroke:none;stroke-opacity:1" />
    </g>
  </g>
</svg>

<svg xmlns="http://www.w3.org/2000/svg" viewBox="0 0 22 22"><g transform="matrix(.98318 0 0 .98318-544.23-573.21)"><path d="m7.578 3c-.84 0-1.523.684-1.523 1.523v1.527h-1.529c-.84 0-1.523.683-1.523 1.523 0 .84.684 1.523 1.523 1.523h1.529v3.535h-1.529c-.84 0-1.523.684-1.523 1.523 0 .84.684 1.523 1.523 1.523h1.529v1.527c0 .84.683 1.523 1.523 1.523.84 0 1.521-.683 1.521-1.523v-1.527h3.535v1.527c0 .84.684 1.523 1.523 1.523.84 0 1.523-.683 1.523-1.523v-1.527h1.529c.84 0 1.521-.684 1.521-1.523 0-.84-.682-1.523-1.521-1.523h-1.529v-3.535h1.529c.839 0 1.523-.684 1.523-1.523 0-.84-.684-1.523-1.523-1.523h-1.529v-1.527c0-.84-.684-1.523-1.523-1.523-.84 0-1.521.684-1.521 1.523v1.527h-3.537v-1.527c0-.84-.682-1.523-1.521-1.523m.846 5.42h4.889v4.891h-4.889v-4.891" transform="matrix(1.0171 0 0 1.0171 553.54 583.01)" fill="#fff"/><rect y="594.38" x="564.9" height="7.962" width="7.962" fill="#bdc3c7" rx="3.981"/></g></svg>
